X: 19
T: Dusty Windowsills
C: Johnny Harling
Z: tziguk
S: https://thesession.org/tunes/29#setting53483
R: jig
M: 6/8
L: 1/8
K: Ador
|:A2B cBA|eAB cBA|G2G EGG|DGG EFG|
A2B cBA|e2d efg|age dBG|1ABG A2G:|2ABG A2z||
|:a2a age|dBdg2f|.g2g gfe|dBA GG/G/G|
EGG DGG|EFG ABc|Bed BAG|1ABG A2g:|2ABG A2G||
|:ABA gAf|ABA edB|GFG eGd|GFG edB|
ABA gAf|ABA efg|age dBG|ABG A3:|

